X:1
T:Title
%%score ( 1 2 ) { ( 3 5 ) | 4 }
L:1/8
Q:1/4=92
M:6/8
K:Ab
V:1 treble nm="Grand Piano, Soprano"
V:2 treble 
V:3 bass nm="Choir Pad, The Wise Shall Shine"
V:5 bass 
V:4 bass 
V:1
 [CE]>[CE][CE] [DF]2 [CE] | [CE]>[CA][DB] [Ec]2 [Ec]/[Ec]/ | [Ec]>[DB][CA] [DB][DB][Ec] | %3
w: By~Thomas~Benjamin~Mosley * * * *|||
 [CA]3- [CA]3/2 z/ [CE] | [CE]>[CE][CE] [DF]<[DF][CE] | [CE]>[EA][EB] [Ec]2 [Ac] | %6
w: |||
 [Ac]>[AB]A [GB]2 [GB] | Bc[GB] [EA]2 [ce] | [ce]3 [Ac]2 [EA] | [FA]3 [DF]2 [Fd]/[Fd]/ | %10
w: ||||
 [Ec]>[Ec][Ac] [Ae][Gd][Ac] | [GB]3- [GB]3/2 z/ [Ge] | [Ae]>[Ac][Ac] [Ac][AB]A | %13
w: |||
 [GB]2 [_Gc] [Fd]2 [DF]/[DF]/ | C-[CE][Ec] [Ec]2 [DGB] | [CA]6- | [CA]3 z3 |] %17
w: ||||
V:2
 x6 | x6 | x6 | x6 | x6 | x6 | x6 | .G3 z3 | x6 | x6 | x6 | x6 | x6 | x6 | .E3 z3 | x6 | x6 |] %17
V:3
 A,>A,A, A,2 A, | A,>A,A, A,2 A,/A,/ | A,>G,A, G,G,G, | A,3- A,3/2 z/ A, | A,>A,A, A,<A,A, | %5
 A,>A,G, A,2[K:treble] E | E>DC D2 D | DED .C3 | A,>A,C E2 C/C/ | D2 D[K:bass] A,2 A,/A,/ | %10
 A,>C[K:treble]E EEE | E3- E3/2 z/ D | C>EE EDC | E2[K:bass] A, A,2 A,/A,/ | z[K:treble] CE E2 D | %15
 C6- | C3 z3 |] %17
V:4
 A,,>A,,A,, A,,2 A,, | A,,>A,,A,, A,,2 A,,/A,,/ | E,>E,E, E,E,E, | A,,3- A,,3/2 z/ A,, | %4
 A,,>A,,A,, A,,<A,,A,, | A,,>C,E, z2 A, | A,>A,A, E,2 E, | E,2 E, .[A,,A,]3 | z2 A, A,2 A,/A,/ | %9
 D,2 D, D,2 D,/D,/ | z z/ A,/A, CB,A, | E,3- E,3/2 z/ E, | A,>A,A, A,A,A, | .E,3 D,2 D,/D,/ | %14
 E,2 [E,A,] [E,A,]2 [E,G,] | [A,,A,]6- | [A,,A,]3 z3 |] %17
V:5
 x6 | x6 | x6 | x6 | x6 | x5[K:treble] x | x6 | x6 | x6 | x3[K:bass] x3 | x2[K:treble] x4 | x6 | %12
 x6 | x2[K:bass] x4 | .A,3[K:treble] z3 | x6 | x6 |] %17

